X: 36003
T: Sausage Factory, The
R: jig
M: 6/8
K: Eminor
"G"GBd GBd|"Em"gfe "G"dBG|"G"GBd GBd|"Am"cBA "Em"B3|
"G"GBd GBd|"Em"gfe "G"dBG|"Am"cBA "Em"BGE|1 "D"AGF "Em"G3:|2 "D"AGF "Em"E3||

